svgs/solid/dog-leashed.svg

<svg xmlns="http://www.w3.org/2000/svg" viewBox="0 0 576 512"><!--! Font Awesome Pro 6.1.2 by @fontawesome - https://fontawesome.com License - https://fontawesome.com/license (Commercial License) Copyright 2022 Fonticons, Inc. --><path d="M282.7 148.1C289.3 154 289.8 164.1 283.9 170.7C277.1 177.3 267.9 177.8 261.3 171.9L101.3 27.89C94.73 21.98 94.2 11.86 100.1 5.297C106-1.272 116.1-1.804 122.7 4.108L282.7 148.1zM256 192V383.3C250.7 383.8 245.4 384 240 384C211.2 384 184 377.1 160 364.8V480C160 497.7 145.7 512 128 512H96C78.33 512 64 497.7 64 480V249.8C35.23 238.9 12.64 214.5 4.836 183.3L.9558 167.8C-3.331 150.6 7.094 133.2 24.24 128.1C41.38 124.7 58.76 135.1 63.05 152.2L66.93 167.8C70.49 182 83.29 191.1 97.97 191.1L256 192zM320 364.8C309.9 369.1 299.2 374.2 288 377.4V208.1L416 261.1V480C416 497.7 401.7 512 384 512H352C334.3 512 320 497.7 320 480V364.8zM426.7 192L420.5 229.2L305.8 180.9L332.7 19.85C334.6 8.395 344.5 0 356.1 0C363.6 0 370.6 3.52 375.1 9.502L392 32H444.1C456.8 32 469.1 37.06 478.1 46.06L496 64H552C565.3 64 576 74.75 576 88V112C576 156.2 540.2 192 496 192H426.7zM448 96C456.8 96 464 88.84 464 80C464 71.16 456.8 64 448 64C439.2 64 432 71.16 432 80C432 88.84 439.2 96 448 96z"/></svg>

<svg xmlns="http://www.w3.org/2000/svg" viewBox="0 0 576 512"><!--! Font Awesome Pro 6.2.0 by @fontawesome - https://fontawesome.com License - https://fontawesome.com/license (Commercial License) Copyright 2022 Fonticons, Inc. --><path d="M122.7 4.1l160 144c6.6 5.9 7.1 16 1.2 22.6s-16 7.1-22.6 1.2l-160-144c-6.6-5.9-7.1-16-1.2-22.6s16-7.1 22.6-1.2zM144 192H256V383.3c-5.3 .5-10.6 .7-16 .7c-28.8 0-56-6.9-80-19.2V480c0 17.7-14.3 32-32 32H96c-17.7 0-32-14.3-32-32V249.8c-28.8-10.9-51.4-35.3-59.2-66.5L1 167.8c-4.3-17.1 6.1-34.5 23.3-38.8s34.5 6.1 38.8 23.3l3.9 15.5C70.5 182 83.3 192 98 192h30 16zM320 364.8c-10.1 5.2-20.8 9.4-32 12.6V208.1L416 262l0 218c0 17.7-14.3 32-32 32H352c-17.7 0-32-14.3-32-32V364.8zM426.7 192l-6.2 37.2L305.8 180.9l26.8-161C334.6 8.4 344.5 0 356.1 0c7.5 0 14.5 3.5 19 9.5L392 32h52.1c12.7 0 24.9 5.1 33.9 14.1L496 64h56c13.3 0 24 10.7 24 24v24c0 44.2-35.8 80-80 80H464 448 426.7zM448 96c8.8 0 16-7.2 16-16s-7.2-16-16-16s-16 7.2-16 16s7.2 16 16 16z"/></svg>
